icons/1_Primary/Opera.svg

<svg width="1024" height="1024" viewBox="0 0 1024 1024" fill="none" xmlns="http://www.w3.org/2000/svg">
<g clip-path="url(#clip0_2_3051)">
<path d="M512 1024C794.77 1024 1024 794.77 1024 512C1024 229.23 794.77 0 512 0C229.23 0 0 229.23 0 512C0 794.77 229.23 1024 512 1024Z" fill="#BA6561"/>
<path d="M427.75 367.74C399.42 401.15 381.12 450.58 379.84 505.98V517.98C381.14 573.4 399.42 622.77 427.75 656.2C464.46 703.9 519.04 734.2 580.05 734.2C617.51 734.2 652.58 722.74 682.6 702.82C635.757 744.907 574.973 768.131 512 768C507.9 768 503.83 767.91 499.84 767.7C364 761.37 256 649.3 256 512C256 370.58 370.62 256 512 256H513C575.634 256.172 636.018 279.367 682.66 321.17C652.66 301.33 617.57 289.79 580.05 289.79C519.05 289.79 464.49 320.08 427.73 367.79L427.75 367.74ZM768 512C768.047 548.033 760.463 583.668 745.747 616.559C731.032 649.45 709.517 678.852 682.62 702.83C616.96 734.83 555.77 712.45 535.51 698.46C600 684.29 648.73 606.29 648.73 512C648.73 417.71 600 339.73 535.51 325.55C555.76 311.55 616.96 289.22 682.62 321.18C709.518 345.155 731.033 374.555 745.749 407.445C760.465 440.335 768.048 475.968 768 512Z" fill="white"/>
</g>
<defs>
<clipPath id="clip0_2_3051">
<rect width="1024" height="1024" fill="white"/>
</clipPath>
</defs>
</svg>

<svg xmlns="http://www.w3.org/2000/svg" width="1024" height="1024" fill="none">
   <g clip-path="url(#a)">
      <path fill="#BA6561" d="M512 1024c282.77 0 512-229.23 512-512S794.77 0 512 0 0 229.23 0 512s229.23 512 512 512Z"/>
      <path fill="#fff" d="M427.75 367.74c-28.33 33.41-46.63 82.84-47.91 138.24v12c1.3 55.42 19.58 104.79 47.91 138.22 36.71 47.7 91.29 78 152.3 78 37.46 0 72.53-11.46 102.55-31.38A254.469 254.469 0 0 1 512 768c-4.1 0-8.17-.09-12.16-.3C364 761.37 256 649.3 256 512c0-141.42 114.62-256 256-256h1a255.252 255.252 0 0 1 169.66 65.17c-30-19.84-65.09-31.38-102.61-31.38-61 0-115.56 30.29-152.32 78l.02-.05ZM768 512a255.205 255.205 0 0 1-85.38 190.83c-65.66 32-126.85 9.62-147.11-4.37C600 684.29 648.73 606.29 648.73 512S600 339.73 535.51 325.55c20.25-14 81.45-36.33 147.11-4.37A255.153 255.153 0 0 1 768 512Z"/>
   </g>
   <defs>
      <clipPath id="a">
         <path fill="#fff" d="M0 0h1024v1024H0z"/>
      </clipPath>
   </defs>
</svg>
